X:1
T:I’ve Enlisted
T:A. R. Walton, 1914
T:I’ve Enlisted
T:Public Domain
T:Public Domain
C:A. R. Walton, 1914
Z:Public Domain
%%score ( 1 2 ) ( 3 4 )
L:1/8
M:4/4
K:Bb
V:1 treble 
V:2 treble 
V:3 bass 
V:4 bass 
V:1
 [B,D][CE] | [DF][DF][DB][Ec] [Fd][Fd][Fc][FB] | [EG]2 [EB]2 [DF]2 [B,D][CE] | %3
w: 1.~I’ve en-|list- ed in the ar- my of the|Lord to- day, Fight- ing|
w: 2.~I’ve en-|list- ed as a sol- dier for Im-|man- u- el, And I’m|
w: 3.~I’ve en-|list- ed in the ar- my of the|heav’n- ly King, Tho’ the|
 [DF][DF][FB][Fc] [Fd]2 [=EB]2 | [Fc]6 [B,D][CE] | [DF][DF][DB][Ec] [Fd][Fd][Fc][FB] | %6
w: ev- er for the truth and|right; Safe- ly|guid- ed by Je- ho- vah in the|
w: go- ing forth to press the|fray, Fight- ing|’neath the Gos- pel ban- ner ev- ’ry|
w: bat- tle may be fierce and|long; Some day|I shall come re- joic- ing and my|
 [EG]2 [EB]2 [DF]2 [FB][Fc] | [Fd][Fd][Ec][DB] [Fd]2 [Ec]2 | [DB]6 |:"^Refrain" [B,D]>[CE] | %10
w: King’s high- way, He will|lead His ar- my day and|night.||
w: foe will quell, And I’ll|gain the vic- t’ry day by|day.|I’ve en-|
w: tro- phies bring, Then I’ll|sing and shout the vic- tor’s|song.||
 [DF](FFF F[Fd]) [Fc]>[FB] | [EG](GGG z B)[FA][EG] | [DF][DF][FB][Fc] [Fd]2 [=EB]2 | [Fc]6 :| %14
w: ||||
w: list- ed * * * * in the|my I * * * am press-|* ward day by day, ar-|my,|
w: ||||
 [EG](GGG z e)[=GB][_Gc] | [Fd][Bf][Bf][Fe] [Fd]2 [Fc]2 | [FB]6 |] %17
w: |||
w: And I’m * * * walk- ing|* King’s high- way. * *||
w: |||
V:2
 x2 | x8 | x8 | x8 | x8 | x8 | x8 | x8 | x6 |: x2 | x d4- x3 | x B4- G2 x | x8 | x6 :| %14
w: ||||||||||||||
w: ||||||||||ar-|ing on-|||
 x e4- _G2 x | x8 | x6 |] %17
w: |||
w: in the|||
V:3
 [B,,F,][B,,F,] | [B,,B,][B,,B,][B,,F,][B,,F,] [B,,B,][B,,B,][C,A,][D,B,] | %2
w: ~ ~|~ ~ ~ ~ ~ ~ ~ ~|
 [E,B,]2 [G,B,]2 B,2 [B,,F,][B,,F,] | [B,,B,][B,,B,][D,B,][F,B,] B,2 [G,B,]2 | %4
w: ~ ~ ~ ~ ~|~ ~ ~ ~ ~ ~|
 [F,A,]6 [B,,F,][B,,F,] | [B,,B,][B,,B,][B,,F,][B,,F,] [B,,B,][B,,B,][C,A,][D,B,] | %6
w: ~ ~ ~|~ ~ ~ ~ ~ ~ ~ ~|
 [E,B,]2 [G,B,]2 B,2 [D,B,][F,A,] | B,B,[F,A,][G,B,] [F,B,]2 [F,A,]2 | [B,,F,B,]6 |: %9
w: ~ ~ ~ ~ ~|~ ~ ~ ~ ~ ~|in|
 [B,,F,]>[B,,F,] | [B,,B,][B,,B,][B,,B,][B,,B,] [B,,B,][B,,B,] [C,A,]>[D,B,] | %11
w: the ar-|my, ~ ~ ~ ~ of the King|
 [E,B,][E,E][E,E][E,E] [E,E]2 [E,B,][E,B,] | [B,,B,][B,,B,][D,B,][F,A,] B,2 [G,B,]2 | [F,A,]6 :| %14
w: ~ ~ ~ ~ ~ ~ ~|~ ~ ~ ~ of the||
 [E,B,][E,B,][E,B,][E,B,] [E,B,]2 [=E,B,][E,B,] | [F,B,][F,D][F,D][F,C] [F,B,]2 [F,E]2 | [B,,D]6 |] %17
w: |||
V:4
 x2 | x8 | x4 B,2 x2 | x4 B,2 x2 | x8 | x8 | x4 B,2 x2 | B,B, x6 | x6 |: x2 | x8 | x8 | x4 B,2 x2 | %13
w: ||~|~|||~|~ ~|||||King,|
 x6 :| x8 | x8 | x6 |] %17
w: ||||

